X:1
T:Title
%%score { ( 1 3 ) | ( 2 4 ) }
L:1/8
M:6/8
K:C
V:1 treble nm="Grand Piano"
V:3 treble 
V:2 bass 
V:4 bass 
V:1
 z3 z2[Q:1/4=87] G | z3 .[EG]3 | .A3 .A3 | .B3 .A3 |[M:5/8] [Ec]-[Ec]- [Ec]3 |[M:1/8] [EG] | %6
[M:3/4] [EG]2 z .[EG]3 | A2 z .A3 | z2 z .[FA]3 |[M:5/8] [Ec]-[Ec]- [Ec]3 |[M:1/8] c | %11
[M:3/4] [DB]2 cd dB | [Ec] [Ge]2 [EG]2 [EG] | [FA][FA] [FA] [^Fd]2 [Fc] |[M:5/8] [GB]3 A2 | %15
[M:1/8] G |[M:3/4] z2 z .[Fd]3 | z [Ge]2 .[EG]3 | A2 z .[FG]3 |[M:5/8] [CEG]-[CEG]- [CEG]3 |] %20
V:2
 z3 z2 E | z G,G, z G,[K:treble]E/E/ | z A,[A,CF] z A,F/F/ | z B,[B,DG] z[K:bass] B,B, | %4
[M:5/8] C,E,G, CG, |[M:1/8] E, |[M:3/4] z G, .G,2 G,[K:treble]E/E/ | z A, .[A,CF]2 A,F/F/ | %8
 z B, .B,2 B,B, |[M:5/8] C,E,G, C,2 |[M:1/8] E |[M:3/4] G,B,[K:treble] [DE][G,F] [B,F]D | %12
 C,G, CC, G,C | F,A, CD, A,D |[M:5/8] z z2[K:treble] F2 |[M:1/8] F | %16
[M:3/4][K:bass] z [G,C] .G,2 G,[K:treble]F/F/ | z [G,C] .G,2 G,[G,CE] | %18
 z A,[K:treble] F<.F[K:bass] G,G, |[M:5/8] C,-C,- C,3 |] %20
V:3
 x6 | [EG][B,EG][CEG] z CG/G/ | z CA z CA/A/ | z DB z D[DFG] |[M:5/8] x5 |[M:1/8] x | %6
[M:3/4] z C .[CEG]2 CG/G/ | z C .A2 CA/A/ | [FB][DFB] .[DFB]2 D[DFG] |[M:5/8] z z2 [G,C]2 | %10
[M:1/8] x |[M:3/4] x6 | x6 | x6 |[M:5/8] x5 |[M:1/8] x |[M:3/4] [Ee][Ge] .[CEc]2 CB/B/ | %17
 .[Ec]2 .C2 CG | z C A<.A [B,D][B,DFG] |[M:5/8] x5 |] %20
V:4
 x6 | .C,3 C,2[K:treble] [G,C] | .[F,F]3 [F,F]2 [A,C] | .[G,F]3 .[G,F]3[K:bass] |[M:5/8] x5 | %5
[M:1/8] x |[M:3/4] C,2 z C,2[K:treble] [G,C] | [F,F]2 z [F,F]2 [A,C] | G,2 z .G,,3 |[M:5/8] x5 | %10
[M:1/8] x |[M:3/4] x2[K:treble] x4 | x6 | x6 |[M:5/8] [G,,G,]-[G,,G,]- [G,,G,]3[K:treble] | %15
[M:1/8] x |[M:3/4][K:bass] C,2 z G,,2[K:treble] [G,C] | C,2 z .C,3 | %18
 [F,F]2[K:treble] [A,C][K:bass] .G,,3 |[M:5/8] x5 |] %20

